X:1
T:James Gibb editions
T:Tota pulchra es - Lemmens
T:#
%%score [ 1 2 ] { ( 3 4 ) | ( 5 6 ) }
L:1/8
Q:1/4=90
M:4/2
K:C
V:1 treble nm="Soprano" snm="S"
V:2 treble nm="Alto" snm="A"
V:3 treble nm="Organ"
V:4 treble 
V:5 bass 
V:6 bass 
V:1
 z16 | z16 | z16 | z16 | z16 | z16 ||[K:G][M:4/2][K:treble] z16 | z16 |!p! B4 d4 c2 B2 A2 G2 | %9
w: ||||||||To- ta pul- chra es, Ma-|
 (B4 A4) G4 z4 | c4 e4 d2 c2 B2 A2 | (G4 A4) B4 z4 | B4 d3 d c2 B2 A2 G2 | (G4 =F4) E4 z4 | %14
w: ri\- * a,|to- ta pul- chra es, Ma-|ri\- * a.|Et ma- cu- la o- ri- gi-|na\- * lis|
 z2 c2 c2 d2 B4 z4 | !^!A4 A2 B2 | G8 !fermata!z4 ||"^animato"!f![Q:1/4=96] B4 | %18
w: non est in te,|non est in|te.|Tu|
 f3 f e2 e2 ^d6 ^c2 | B4 z4 z4 B2 B2 | f3 f e4 ^d6 ^c2 | B4 z4 z4 B4 | %22
w: glo- ri- a Je- ru- sa-|lem. Tu lae-|ti- ti- a Is- ra-|el. Tu|
[Q:1/4=96][Q:1/4=96][Q:1/4=96] B2 B2 B2 B2 c3 c c4 | d3 d d4 e4 e4 | %24
w: ho- no- ri- fi- cen- ti- a|po- pu- li no- stri.|
 z2"^stringendo"[Q:1/4=96] ^d2[Q:1/4=96] d2[Q:1/4=96] d2[Q:1/4=97] e4[Q:1/4=97] e4 | %25
w: Tu ad- vo- ca- ta|
[Q:1/4=98] z4[Q:1/4=98] ^d2[Q:1/4=99] d2[Q:1/4=99] e4[Q:1/4=100] e4 | %26
w: pec- ca- to- rum,|
[Q:1/4=100][Q:1/4=100][Q:1/4=100][Q:1/4=100] z2[Q:1/4=101] =f2[Q:1/4=101] c2[Q:1/4=101] A2[Q:1/4=102] _B4[Q:1/4=102] G4 | %27
w: tu ad- vo- ca- ta,|
[Q:1/4=103] z2[Q:1/4=103] =f2[Q:1/4=103] c2[Q:1/4=104] A2[Q:1/4=104] ^A4[Q:1/4=105] A4 | %28
w: tu ad- vo- ca- ta|
 z4"^dim."[Q:1/4=99] B2 B2[Q:1/4=97] B8[Q:1/4=95] | %29
w: pec- ca- to\--|
"^rall."[Q:1/4=94] B16[Q:1/4=92][Q:1/4=90][Q:1/4=90] || %30
w: rum.|
[Q:1/4=94]"^tempo I"!p![Q:1/4=94][Q:1/4=94] B4 d4 (c2 B2) A2 G2 | (B4 A4) G4 z4 | %32
w: O Ma- ri\- * a, Ma-|ri\- * a1|
 c4 e4 (d2 c2) (B2 A2) | (G4 A2) A2 B4 z4 | B4 d4 (c2 B2) A2 G2 | (G4 =F4) E4 z4 | %36
w: Vir- go pru\- * den\- *|tis\- * si- ma,|o- ra, o\- * ra pro|no\- * bis:|
 c2 c2 (c2 d2) B6 B2 | (A6 B2) G4 G4 | (e2 d2) c2"^rit."[Q:1/4=93] B2[Q:1/4=90] A4[Q:1/4=87] A4 | %39
w: in- ter- ce\- * de pro|no\- * bis ad|Do\- * mi- num Je- sum|
[Q:1/4=85] (A2[Q:1/4=83] B2[Q:1/4=82] d2[Q:1/4=80] c2)[Q:1/4=80] !fermata!B8 |] %40
w: Chri\- * * * stum.|
V:2
 z16 | z16 | z16 | z16 | z16 | z16 ||[K:G][M:4/2][K:treble] z16 | z16 |!p! G4 F4 E2 D2 C2 B,2 | %9
w: ||||||||To- ta pul- chra es, Ma-|
 (D4 C4) B,4 z4 | E4 G4 F2 A2 G2 F2 | E8 ^D4 z4 | =D4 =F3 F E2 G2 F2 E2 | (E4 D4) C4 z4 | %14
w: ri\- * a,|to- ta pul- chra es, Ma-|ri- a|et ma- cu- la o- ri- gi-|na\- * lis|
 z2 A2 A2 D2 G4 !^!G4- | G2 G2 G2 F2 | G8 !fermata!z4 ||!f! B4 | A3 A G2 G2 F6 E2 | %19
w: non est in te, non,|* non est in|te.|Tu|glo- ri- a Je- ru- sa-|
 ^D4 z4 z4 B2 B2 | A3 A G4 F6 E2 | ^D4 z4 z4 B2 A2 | (G2 F2) E2 D2 C3 C c4 | c3 c B4 c4 c4 | %24
w: lem. tu lae-|ti- ti- a Is- ra-|el. Tu ho-|no\- * ri- fi- cen- ti- a|po- pu- li no- stri.|
 z8 z2"^stringendo" c2 c2 c2 | c4 c4 z4 c2 c2 | c4 c4 z2 _d2 _B2 G2 | A4 c4 z2 e2 ^c2 ^A2 | %28
w: Tu ad- vo-|ca- ta pec- ca-|to- rum, tu ad- vo-|ca- ta, tu ad- vo-|
"^dim." =B4 G4 F4 E4 |"^rall." (B,4 ^C4) (D4 F4) ||!p! G4 F4 (E2 D2) C2 B,2 | (D4 C4) B,4 z4 | %32
w: ca- ta pec- ca-|to\- * rum. *|O Ma- ri\- * a, Ma-|ri\- * a!|
 E4 G4 (F2 A2) (G2 F2) | E6 E2 ^D4 z4 | =D4 =F4 (E2 G2) F2 E2 | (E4 D4) C4 G2 G2 | %36
w: Vir- go pru\- * den\- *|tis- si- ma,|o- ra. o\- * ra pro|no\- * bis: in- ter-|
 (A4 D4) G2 G2 G4 | G2 G2 (G2 F2) G2 F2 E2 D2 | C4 E2"^rit." E2 (A2 G2) (F2 E2) | %39
w: ce\- * de pro no-|bis, pro no\- * bis ad Do- mi-|num Je- sum Chri\- * stum, *|
 F2 F2 F4 !fermata!G8 |] %40
w: Je- sum Chri- stum.|
V:3
[K:G]"^cantabile"!p!!p!"^Tota pulchra es""^Jacques-Nicolas Lemmens\n(1823-81)" B4 d4 c2 B2 A2 G2 | %1
 F4 A4 G2 F2 E2 D2 | D4 =F4 E2 D2 C2 B,2 | D6 C2 B,8 | A,2 C2 E2 B2 A8- | A2 c2 B2 A2 G8- || %6
[M:4/2] G2 d2 B2 G2 F2 E2 F2 D2 | A8 G2 D2 G2 A2 | [GB]4 [Fd]4 [Ec]2 [DB]2 [CA]2 [B,G]2 | %9
 [DB]4 [CA]4 [B,G]4 [CA]2 [DB]2 | [Ec]4 [Ge]4 [Fd]2 [Ac]2 [GB]2 [FA]2 | G4 A4 B8- | %12
 [=DB]4 [=Fd]4 [Ec]2 [GB]2 [FA]2 [EG]2 | [EG]4 [D=F]4 [CE]4- [Ec]4 | [Ac]8 [GB]8- | [GA]6 [FB]2 | %16
 [B,G]8- [B,G]2 !fermata!z2 ||!f! B4 | [Af]4 [Ge]4 [F^d]6 [E^c]2 | B8- B4 B4 | %20
 [Af]4 [Ge]4 [F^d]6 [E^c]2 | B16- | [GB]8 [Ac]8- | [Ac]4 B4 [EGce]8- | [Ac^d]8"^cresc." [_Bce]8 | %25
 [Ac!courtesy!^d]8 [_Bce]8 | [Ac=f]8 [G_de]8 | [Ac=f]8 [G^ce]8 | B16- | B16 || %30
!p! [GB]4 [Fd]4 [Ec]2 [DB]2 [CA]2 [B,G]2 | [DFB]4- [CFA]4 [B,G]4 [CA]2 [DB]2 | %32
 [Ec]4 [Ge]4 [Fd]2 [Ac]2 [GB]2 [FA]2 | G4 A4 B8- | [=DB]4 [=Fd]4 [Ec]2 [GB]2 [FA]2 [EG]2 | %35
 [EG]4 [D=F]4 [CE]4- [EGc]4 | [Ac]8 [GB]8- | [GA]6 [FB]2 G2 F2 E2 D2 | e2 d2 c2 B2 A8- | %39
 A2 B2 d2 c2 !fermata![DGB]8 |] %40
V:4
[K:G] G4 F4 E2 D2 C2 B,2 | x4 x4 x4 x4 | x4 x4 x4 x4 | x4 x4 x4 x4 | x16 | x16 ||[M:4/2] x16 | %7
 x16 | x16 | x16 | x16 | E8 ^D2 F2 E2 D2 | x16 | x16 | x16 | x8 | x4 x4 x4 || B4- | B12 ^A4 | %19
 [^DB]2 [F=A]4 [EG]2 [DF]4 B4- | B12 ^A4 | [^DB]2 [F=A]4 [EG]2 [DF]8 | E12 =F4- | [Fd]8 x8 | x16 | %25
 x16 | x16 | x16 | B4 G4 F4 E4 | z4 ^C4 D4- [DF]4 || D4 x12 | x16 | x16 | E8 ^D2 F2 E2 D2 | x16 | %35
 x16 | x16 | x8 G8- | G12 F2 [EG]2 | F8 !fermata!x8 |] %40
V:5
[K:G]!p! G,8 G,,8 |!p! A,4 C4 B,2 A,2 G,2 F,2 | G,8- G,6 =F,2 | E,4 ^F,4 G,8- | %4
 G,8 F,2 A,2 C2[I:staff -1] E2 | ^D8 E4 =D2 C2 ||[M:4/2][I:staff +1] B,4 G,4 A,2 G,2 A,2 F,2 | %7
 C8 B,4 z4 | G,,8 G,8 | D,8 E,2 D,2 C,2 B,,2 | A,,8 D,8 | E,8 F,2 A,2 G,2 F,2 | =F,4 D,4 G,8- | %13
 G,8 G,4[I:staff -1] E4- | E4 D8 E4- | E4 D2 C2 |[I:staff +1] G,8- G,2 !fermata!z2 || B,4 | %18
 ^D4 E4 F4 F,4- | F,2 ^D,2 E,2 G,2 B,4 B,4 | ^D4 E4 F4 F,4- | F,2 ^D,2 E,2 G,2 B,2 A,2 G,2 F,2 | %22
 E,2 D,2 C,2 B,,2 A,,2 G,,2 =F,,2 E,,2 | D,,2 A,,2 G,,2 G,2 C,2 G,2 C2 G,2 | %24
 ^F,2 A,2 C2"^cresc." F,2 G,2 _B,2 C2 G,2 | F,2 A,2 C2 F,2 G,2 _B,2 C2 G,2 | x16 | x16 | B,16- | %29
"^rall." B,4 x4 x4 x4 ||!p! G,,8 G,8 | D,8 E,2 D,2 C,2 B,,2 | A,,8 D,8 | E,8 F,2 A,2 G,2 F,2 | %34
 =F,4 D,4 G,8- | G,8 G,4[I:staff -1] E4- | E4 D8 E4- | E4[I:staff +1] D2 C2 B,2 x2 x4 | %38
[I:staff -1] C4 E4- E4[I:staff +1] x4 |[I:staff -1] D4[I:staff +1] A,4 x8 |] %40
V:6
[K:G] x4 x4 x4 x4 | D,8 D,,4 C,4 | B,,4 D,4 C,2 B,,2 A,,2 G,,2 | C,,4 D,,4 E,,2 G,,2 B,,2 D,2 | %4
 C,16 | B,,8 C,2 A,,2 B,,2 C,2 ||[M:4/2] D,16- | D,2 E,2 F,2 D,2 G,4 z4 | x16 | x16 | x16 | %11
 E,4 C,4 B,,8 | G,,8- G,,6 A,,2 | B,,2 G,,2 A,,2 B,,2 C,2 B,,2 A,,2 G,,2 | %14
 ^F,,4 F,4 G,2 F,2 E,2 D,2 | C,4 D,4 | G,2 D,2 B,,2 A,,2 G,,2 !fermata!z2 || x4 | x4 x4 x4 x4 | %19
 B,,8- B,,4 B,4 | x4 x4 x4 x4 | B,,8- B,,4 z4 | x16 | x16 | x16 | x16 | %26
 A,2 C2 =F2 A,2 _B,2 _D2 E2 B,2 | A,2 C2 =F2 A,2 ^A,2"^dim." E2 ^C2 A,2 | B,4 G,4 F,4 E,4 | %29
 B,,8 A,,8 || x16 | x16 | x16 | E,4 C,4 B,,8 | G,,8- G,,6 A,,2 | %35
 B,,2 G,,2 A,,2 B,,2 C,2 B,,2 A,,2 G,,2 | !courtesy!^F,,4 F,4 G,2 F,2 E,2 D,2 | %37
 C,4 D,4 E,2 D,2 C,2 B,,2 | A,,6"^rit." B,,2 C,8 | D,8 !fermata!G,,8 |] %40

